X: 2403
T: NELLY GRAY
R: Sand Jig.
%R: air, sand jig, hornpipe
B: James Kerr "Merry Melodies" v.2 p.45 #403
Z: 2016 John Chambers <jc:trillian.mit.edu>
M: C
L: 1/8
K: G
B>c |\
d>^cd>e d>BA>G | c>de>f g2f>e |\
d>d^c>d e>dB>G | A2d2 D2B>c |\
d>^cd>e d>BA>G | c>de>f g2f>e |\
e2B>d d>cAF | G2[g2B2] [g2B2] :|
|: A>B |\
c>cc>c c2d>c | c>BB>B B2G>B |\
d>d^c>d e>dB>G | A2d2D2 B>c |\
d>^cd>e d>BA>G | c>de>f g2fe |\
d2B>d d>cAF | G2[g2B2] [g2B2] :|
